packages/foundations/assets/icons/functional/images/file/folder_14.svg

<svg width="14" height="14" viewBox="0 0 14 14" fill="none" xmlns="http://www.w3.org/2000/svg">
<g clip-path="url(#clip0_185_938)">
<path fill-rule="evenodd" clip-rule="evenodd" d="M5.63886 2.79999H3.49998C2.72678 2.79999 2.09998 3.42679 2.09998 4.19999V9.79999C2.09998 10.5732 2.72678 11.2 3.49998 11.2H10.5C11.2732 11.2 11.9 10.5732 11.9 9.79999V5.24999C11.9 4.44177 11.238 3.84999 10.5 3.84999H6.94748L6.14309 3.01444C6.01114 2.87741 5.8291 2.79999 5.63886 2.79999ZM3.49998 4.19999H5.34168L6.14575 5.03554C6.2777 5.17256 6.45974 5.24999 6.64998 5.24999H10.5V9.79999H3.49998V4.19999Z" fill="#1A1C1F"/>
</g>
<defs>
<clipPath id="clip0_185_938">
<rect width="14" height="14" fill="white"/>
</clipPath>
</defs>
</svg>

<svg xmlns="http://www.w3.org/2000/svg" width="14" height="14" fill="none"><g clip-path="url(#a)"><path fill="#1A1C1F" fill-rule="evenodd" d="M5.639 2.8H3.5a1.4 1.4 0 0 0-1.4 1.4v5.6a1.4 1.4 0 0 0 1.4 1.4h7a1.4 1.4 0 0 0 1.4-1.4V5.25a1.4 1.4 0 0 0-1.4-1.4H6.947l-.804-.836A.7.7 0 0 0 5.64 2.8M3.5 4.2h1.842l.804.836a.7.7 0 0 0 .504.214h3.85V9.8h-7z" clip-rule="evenodd"/></g><defs><clipPath id="a"><path fill="#fff" d="M0 0h14v14H0z"/></clipPath></defs></svg>
